X: 21340
T: Kerfunten, The
R: jig
M: 6/8
K: Gmajor
BcB BAG|Bcd efg|dBd gdB|ABA AGA|
BcB BAG|Bcd efg|dBd gdB|AGF G3:|
g3 gab|ege edB|g3 gab|bag age|
g3 gab|e3 edB|dBd gdB|AGF G3:|

